svgs/sharp-solid/up-from-dotted-line.svg

<svg xmlns="http://www.w3.org/2000/svg" viewBox="0 0 448 512"><!--! Font Awesome Pro 6.6.0 by @fontawesome - https://fontawesome.com License - https://fontawesome.com/license (Commercial License) Copyright 2024 Fonticons, Inc. --><path d="M64 192L224 32 384 192l0 32-96 0 0 160-128 0 0-160-96 0 0-32zm0 224l0 64L0 480l0-64 64 0zm96 0l0 64-64 0 0-64 64 0zm32 64l0-64 64 0 0 64-64 0zm160-64l0 64-64 0 0-64 64 0zm32 0l64 0 0 64-64 0 0-64z"/></svg>

<svg xmlns="http://www.w3.org/2000/svg" viewBox="0 0 448 512"><!--! Font Awesome Pro 6.4.0 by @fontawesome - https://fontawesome.com License - https://fontawesome.com/license (Commercial License) Copyright 2023 Fonticons, Inc. --><path d="M64 192L224 32 384 192v32H288V384H160V224H64V192zm0 224v64H0V416H64zm96 0v64H96V416h64zm32 64V416h64v64H192zm160-64v64H288V416h64zm32 0h64v64H384V416z"/></svg>
